outputs/icons/audio_video/closed_caption_sharp.svg

<svg xmlns="http://www.w3.org/2000/svg" width="1200" height="1200" fill="none"><g clip-path="url(#a)"><path fill="#000" d="M1050 200H150v800h900zM550 550h-75v-25H375v150h100v-25h75v100H300V450h250zm350 0h-75v-25H725v150h100v-25h75v100H650V450h250z"/></g><defs><clipPath id="a"><path fill="#fff" d="M0 0h1200v1200H0z"/></clipPath></defs></svg>

<svg width="1200" height="1200" viewBox="0 0 1200 1200" fill="none" xmlns="http://www.w3.org/2000/svg"><g clip-path="url(#clip0_124_1173)"><path d="M1050 200H150V1000H1050V200ZM550 550H475V525H375V675H475V650H550V750H300V450H550V550ZM900 550H825V525H725V675H825V650H900V750H650V450H900V550Z" fill="#1D1E23"/></g><defs><clipPath id="clip0_124_1173"><path width="24" fill="white" d="M0 0H1200V1200H0V0z"/></clipPath></defs></svg>
